X:97
T:
S:Efter Maria Pettersson, Flors i Burs.
M:2/4
L:1/8
K:C
E|G G F F|(EC) E G|c B d B|
w:De bou-ki, sum däu ga_ mi, mä nam-ni mitt u
c2 z::c|d B c A|c B G A|F E F A|
w:ditt, dän kann däu u fa ta i-gänn, ta-li-ta-li-ta
G F E F|G G B B|c3:|
w:ta i-gänn, så jär vör kvitt um kvitt.
